sources/design/Outline/ൂ_small.svg

<svg:svg xmlns:cc="http://creativecommons.org/ns#" xmlns:dc="http://purl.org/dc/elements/1.1/" xmlns:inkscape="http://www.inkscape.org/namespaces/inkscape" xmlns:rdf="http://www.w3.org/1999/02/22-rdf-syntax-ns#" xmlns:sodipodi="http://sodipodi.sourceforge.net/DTD/sodipodi-0.dtd" xmlns:svg="http://www.w3.org/2000/svg" xml:space="preserve" width="1000" height="1000" version="1.1" style="clip-rule:evenodd;fill-rule:evenodd;image-rendering:optimizeQuality;shape-rendering:geometricPrecision;text-rendering:geometricPrecision" viewBox="0 0 1000 1000" id="svg10" sodipodi:docname="ൂ_small.svg" inkscape:version="1.0.2 (e86c870879, 2021-01-15)"><svg:metadata id="metadata14"><rdf:RDF><cc:Work rdf:about=""><dc:format>image/svg+xml</dc:format><dc:type rdf:resource="http://purl.org/dc/dcmitype/StillImage" /><dc:title /></cc:Work></rdf:RDF></svg:metadata><sodipodi:namedview pagecolor="#ffffff" bordercolor="#666666" borderopacity="1" objecttolerance="10" gridtolerance="10" guidetolerance="10" inkscape:pageopacity="0" inkscape:pageshadow="2" inkscape:window-width="1920" inkscape:window-height="1007" id="namedview12" showgrid="false" inkscape:zoom="1.5936404" inkscape:cx="61.111954" inkscape:cy="984.97134" inkscape:window-x="1920" inkscape:window-y="0" inkscape:window-maximized="1" inkscape:current-layer="svg10" showguides="true" inkscape:guide-bbox="true" inkscape:document-rotation="0" inkscape:snap-object-midpoints="false" inkscape:snap-page="false" inkscape:pagecheckerboard="0"><sodipodi:guide position="0,1000" orientation="0,1" id="guide16" inkscape:label="" inkscape:locked="true" inkscape:color="rgb(0,0,255)" /><sodipodi:guide position="1763.3122,2036.1693" orientation="1000,0" id="guide18" /><sodipodi:guide position="0,200" orientation="0,1" id="guide20" inkscape:label="base" inkscape:locked="true" inkscape:color="rgb(0,0,255)" /><inkscape:grid type="xygrid" id="grid24" originx="-473.37552" originy="-489.69235" /><sodipodi:guide position="0,0" orientation="0,1" id="guide34" inkscape:label="bottom" inkscape:locked="true" inkscape:color="rgb(0,0,255)" /><sodipodi:guide position="225.05109,1693.3186" orientation="0,1" id="guide44" inkscape:label="" inkscape:locked="false" inkscape:color="rgb(0,0,255)" /><sodipodi:guide position="0,900" orientation="0,1" id="guide46" inkscape:label="" inkscape:locked="true" inkscape:color="rgb(0,0,255)" /><sodipodi:guide position="368.93452,811.59404" orientation="-1,0" id="guide841" inkscape:label="width" inkscape:locked="false" inkscape:color="rgb(0,0,255)" /><sodipodi:guide position="0,1000" orientation="0,1000" id="guide860" /><sodipodi:guide position="1000,1000" orientation="1000,0" id="guide862" /><sodipodi:guide position="1000,0" orientation="0,-1000" id="guide864" /><sodipodi:guide position="0,0" orientation="-1000,0" id="guide866" /></sodipodi:namedview>
 <svg:defs id="defs4"><inkscape:path-effect effect="fillet_chamfer" id="path-effect856" is_visible="true" lpeversion="1" satellites_param="F,0,0,1,0,0,0,1 @ F,0,0,1,0,0,0,1 @ F,0,0,1,0,0,0,1 @ F,0,0,1,0,0,0,1 @ F,0,0,1,0,0,0,1 @ F,0,0,1,0,0,0,1 @ F,0,0,1,0,0,0,1 @ F,0,0,1,0,0,0,1 @ F,0,0,1,0,0,0,1 @ F,0,0,1,0,0,0,1 @ F,0,0,1,0,0,0,1 @ F,0,0,1,0,0,0,1 @ F,0,0,1,0,0,0,1 @ F,0,0,1,0,0,0,1 @ F,0,0,1,0,0,0,1 @ F,0,0,1,0,0,0,1 @ F,0,1,1,0,15.121534,0,1 @ F,0,1,1,0,15.121534,0,1 @ F,0,0,1,0,0,0,1 @ F,0,0,1,0,0,0,1 @ F,0,0,1,0,0,0,1 @ F,0,0,1,0,0,0,1 @ F,0,0,1,0,0,0,1 @ F,0,0,1,0,0,0,1 @ F,0,0,1,0,0,0,1 @ F,0,0,1,0,0,0,1 @ F,0,0,1,0,0,0,1 @ F,0,0,1,0,0,0,1 @ F,0,0,1,0,0,0,1 @ F,0,0,1,0,0,0,1 @ F,0,0,1,0,0,0,1 @ F,0,0,1,0,0,0,1 @ F,0,0,1,0,0,0,1" unit="px" method="auto" mode="F" radius="0" chamfer_steps="1" flexible="false" use_knot_distance="true" apply_no_radius="true" apply_with_radius="true" only_selected="true" hide_knots="false" /><inkscape:path-effect effect="fillet_chamfer" id="path-effect855" is_visible="true" lpeversion="1" satellites_param="F,0,0,1,0,0,0,1 @ F,0,0,1,0,0,0,1 @ F,0,0,1,0,0,0,1 @ F,0,0,1,0,0,0,1 @ F,0,0,1,0,0,0,1 @ F,0,0,1,0,0,0,1 @ F,0,0,1,0,0,0,1 @ F,0,0,1,0,0,0,1 @ F,0,0,1,0,0,0,1 @ F,0,0,1,0,0,0,1 @ F,0,0,1,0,0,0,1 @ F,0,0,1,0,0,0,1 @ F,0,0,1,0,0,0,1 @ F,0,0,1,0,0,0,1 @ F,0,0,1,0,0,0,1 @ F,0,0,1,0,0,0,1 @ F,0,1,1,0,48.592564,0,1 @ F,0,1,1,0,48.592564,0,1 @ F,0,0,1,0,0,0,1 @ F,0,0,1,0,0,0,1 @ F,0,0,1,0,0,0,1 @ F,0,0,1,0,0,0,1 @ F,0,0,1,0,0,0,1 @ F,0,0,1,0,0,0,1 @ F,0,0,1,0,0,0,1 @ F,0,0,1,0,0,0,1 @ F,0,0,1,0,0,0,1 @ F,0,0,1,0,0,0,1 @ F,0,0,1,0,0,0,1 @ F,0,0,1,0,0,0,1 @ F,0,0,1,0,0,0,1 @ F,0,0,1,0,0,0,1 @ F,0,0,1,0,0,0,1" unit="px" method="auto" mode="F" radius="0" chamfer_steps="1" flexible="false" use_knot_distance="true" apply_no_radius="true" apply_with_radius="true" only_selected="true" hide_knots="false" /><inkscape:path-effect effect="spiro" id="path-effect858" is_visible="true" lpeversion="1" /><inkscape:path-effect effect="spiro" id="path-effect854" is_visible="true" lpeversion="1" />
  <svg:style type="text/css" id="style2">
   
    .fil0 {fill:#EF7F1A;fill-rule:nonzero}
   
  </svg:style>
 <inkscape:path-effect effect="spiro" id="path-effect1214" is_visible="true" lpeversion="1" /><inkscape:path-effect effect="spiro" id="path-effect1195" is_visible="true" lpeversion="1" /><inkscape:path-effect effect="spiro" id="path-effect992" is_visible="true" lpeversion="1" /><inkscape:path-effect effect="spiro" id="path-effect287" is_visible="true" lpeversion="1" /><inkscape:path-effect effect="spiro" id="path-effect1032" is_visible="true" lpeversion="1" /><inkscape:path-effect effect="spiro" id="path-effect1218" is_visible="true" lpeversion="1" /><inkscape:path-effect effect="spiro" id="path-effect309" is_visible="true" lpeversion="1" /><inkscape:path-effect effect="spiro" id="path-effect1525" is_visible="true" lpeversion="1" /><inkscape:path-effect effect="spiro" id="path-effect1343" is_visible="true" lpeversion="1" /></svg:defs>
 
<svg:g id="path979-0-6-9"><svg:path style="color:#000000;clip-rule:nonzero;fill:#1a5fb4;fill-rule:nonzero;stroke-linecap:round;stroke-linejoin:round;-inkscape-stroke:none;paint-order:fill stroke markers;shape-rendering:auto" d="M 188.68555,767.69922 C 165.62251,767.1922099999999 142.04827,770.93745 119.70117,780.8632799999999 C 101.78437000000001,788.8213199999999 85.21965,800.6014999999999 72.035156,816.25195 C 58.795702,831.9676499999999 49.390248,851.1476299999999 46.007812,872.27539 C 42.831859,892.1134000000001 45.231992,912.0574300000001 52.025391,930.26562 C 55.221171999999996,938.83121 59.405039,946.85173 64.28125,954.34766 C 55.883594,948.91377 44.806653,945.54476 33.296875,948.14453 C 19.554209,951.24866 9.1563476,962.41201 4.8632812,973.25 L -22.322266,1041.8828 C -31.287045999999997,1064.5147000000002 -23.371098,1088.9602 -0.9707031300000004,1100.9141000000002 C 14.157278,1108.9871000000003 29.915926,1115.8618000000001 46.132812,1121.4531000000002 C 93.246289,1137.6971 143.4602,1142.8090000000002 192.45898,1138.0879000000002 C 226.21249,1134.8357000000003 260.8929,1126.7937000000002 292.89453000000003,1109.9746000000002 C 325.09955,1093.0486000000003 353.97057,1067.2169000000004 371.41602,1032.8438000000003 C 383.88322,1008.2794000000004 389.59425,981.0166800000003 388.82031,953.9570300000004 C 388.04761,926.9406000000004 380.86158,900.6656300000004 368.66406,877.0859400000004 C 340.47519,822.5924600000004 287.30338,785.8626400000004 229.27148,772.7890600000004 C 216.17705,769.8391200000004 202.52337,768.0034200000005 188.68555,767.6992200000004 L 188.68555,767.69922 M 187.62305,827.7832 C 197.00127,827.9758999999999 206.59674,829.1849599999999 216.08398,831.32227 C 230.76733,834.63017 244.98543,840.26629 258.15234,847.62109 C 257.01923,849.65607 255.65051999999997,851.55892 254.4082,853.53516 C 245.54444999999998,848.86185 236.55175,844.94278 227.73633,841.53125 C 217.22129,837.46197 205.34193000000002,833.42625 191.82422000000003,831.45117 C 178.18912000000003,829.4589400000001 163.04171000000002,829.63369 147.75000000000003,834.6933600000001 C 144.71070000000003,835.6989900000001 141.74455000000003,836.99552 138.80859000000004,838.3710900000001 C 140.53539000000004,837.4441800000001 142.25244000000004,836.49863 144.05664000000004,835.6972700000001 C 156.96745000000004,829.9627200000001 171.99267000000003,827.4620500000001 187.62305000000003,827.7832000000001 L 187.62305,827.7832 M 173.94531,890.3671899999999 C 176.74558000000002,890.2083899999999 179.85459,890.3409899999999 183.14844,890.8222699999999 C 189.85353,891.8019499999999 197.53704,894.1794499999999 206.08203,897.4863299999998 C 206.81597,897.7703599999999 207.48056,898.1047199999998 208.20703,898.3945299999998 C 198.38404,903.9352399999998 188.42302,907.5643099999998 179.17383,908.4960899999998 C 172.03836,909.2149399999997 165.90087,908.1086299999997 162.32227,906.2753899999998 C 160.56434000000002,905.3748499999998 159.21457,904.2237799999998 158.47461,903.3203099999998 C 157.77676000000002,902.4682499999998 157.41535000000002,901.5202499999998 157.35742000000002,901.2226599999998 C 157.29662000000002,900.9101899999998 157.59452000000002,898.5418199999998 158.68164000000002,897.0058599999998 C 159.9652,895.1923399999997 162.94516000000002,892.8647799999998 166.59766000000002,891.6562499999998 C 168.65330000000003,890.9760899999998 171.14504000000002,890.5259799999998 173.94531,890.3671899999998 L 173.94531,890.3671899999999 M 260.43945,935.4101599999999 C 261.49384000000003,937.0091799999999 262.45145,938.6262199999999 263.31445,940.25781 C 257.45304000000004,943.68599 251.39090000000002,946.74358 245.13281,949.26172 C 240.95478,950.94288 236.66351,952.32695 232.3418,953.5917999999999 C 238.62288,950.32926 244.61475000000002,946.7453499999999 250.22656,942.91797 C 253.72223,940.5338499999999 257.11399,938.01256 260.43945,935.41016 L 260.43945,935.4101599999999 M 51.111328,1019.4219 C 81.603404,1040.8802 116.17689,1056.3966 152.69531,1064.4961 C 185.23003,1071.712 222.30559,1073.7501 257.625,1059.3984 C 266.35861,1055.8496 274.81401,1051.2997 282.71289,1045.75 C 277.11942,1049.8484 271.19619,1053.5965 264.98047,1056.8633 C 241.91032,1068.9882 214.87939000000003,1075.6486 186.70508,1078.3633 C 145.74900000000002,1082.3095 104.01383000000001,1077.9433999999999 65.69140600000001,1064.7305 C 56.15466700000002,1061.4424 46.888748000000014,1057.4204 37.783203000000015,1053.0645 L 51.111328,1019.4219 M 291.05664,1039.084 C 288.98044000000004,1040.8763000000001 286.83545000000004,1042.5986 284.63281,1044.2734 C 286.842,1042.6536 288.94943,1040.8699000000001 291.05664,1039.084" id="path27050" /></svg:g></svg:svg>

<svg:svg xmlns:cc="http://creativecommons.org/ns#" xmlns:dc="http://purl.org/dc/elements/1.1/" xmlns:inkscape="http://www.inkscape.org/namespaces/inkscape" xmlns:rdf="http://www.w3.org/1999/02/22-rdf-syntax-ns#" xmlns:sodipodi="http://sodipodi.sourceforge.net/DTD/sodipodi-0.dtd" xmlns:svg="http://www.w3.org/2000/svg" xml:space="preserve" width="1000" height="1000" version="1.1" style="clip-rule:evenodd;fill-rule:evenodd;image-rendering:optimizeQuality;shape-rendering:geometricPrecision;text-rendering:geometricPrecision" viewBox="0 0 1000 1000" id="svg10" sodipodi:docname="ൂ_small.svg" inkscape:version="1.0.2 (e86c870879, 2021-01-15)"><svg:metadata id="metadata14"><rdf:RDF><cc:Work rdf:about=""><dc:format>image/svg+xml</dc:format><dc:type rdf:resource="http://purl.org/dc/dcmitype/StillImage" /><dc:title /></cc:Work></rdf:RDF></svg:metadata><sodipodi:namedview pagecolor="#ffffff" bordercolor="#666666" borderopacity="1" objecttolerance="10" gridtolerance="10" guidetolerance="10" inkscape:pageopacity="0" inkscape:pageshadow="2" inkscape:window-width="1920" inkscape:window-height="1007" id="namedview12" showgrid="false" inkscape:zoom="1.5936404" inkscape:cx="61.111954" inkscape:cy="984.97134" inkscape:window-x="1920" inkscape:window-y="0" inkscape:window-maximized="1" inkscape:current-layer="svg10" showguides="true" inkscape:guide-bbox="true" inkscape:document-rotation="0" inkscape:snap-object-midpoints="false" inkscape:snap-page="false" inkscape:pagecheckerboard="0"><sodipodi:guide position="0,1000" orientation="0,1" id="guide16" inkscape:label="" inkscape:locked="true" inkscape:color="rgb(0,0,255)" /><sodipodi:guide position="1763.3122,2036.1693" orientation="1000,0" id="guide18" /><sodipodi:guide position="0,200" orientation="0,1" id="guide20" inkscape:label="base" inkscape:locked="true" inkscape:color="rgb(0,0,255)" /><inkscape:grid type="xygrid" id="grid24" originx="-473.37552" originy="-489.69235" /><sodipodi:guide position="0,0" orientation="0,1" id="guide34" inkscape:label="bottom" inkscape:locked="true" inkscape:color="rgb(0,0,255)" /><sodipodi:guide position="225.05109,1693.3186" orientation="0,1" id="guide44" inkscape:label="" inkscape:locked="false" inkscape:color="rgb(0,0,255)" /><sodipodi:guide position="0,900" orientation="0,1" id="guide46" inkscape:label="" inkscape:locked="true" inkscape:color="rgb(0,0,255)" /><sodipodi:guide position="368.93452,811.59404" orientation="-1,0" id="guide841" inkscape:label="width" inkscape:locked="false" inkscape:color="rgb(0,0,255)" /><sodipodi:guide position="0,1000" orientation="0,1000" id="guide860" /><sodipodi:guide position="1000,1000" orientation="1000,0" id="guide862" /><sodipodi:guide position="1000,0" orientation="0,-1000" id="guide864" /><sodipodi:guide position="0,0" orientation="-1000,0" id="guide866" /></sodipodi:namedview>
 <svg:defs id="defs4"><inkscape:path-effect effect="fillet_chamfer" id="path-effect856" is_visible="true" lpeversion="1" satellites_param="F,0,0,1,0,0,0,1 @ F,0,0,1,0,0,0,1 @ F,0,0,1,0,0,0,1 @ F,0,0,1,0,0,0,1 @ F,0,0,1,0,0,0,1 @ F,0,0,1,0,0,0,1 @ F,0,0,1,0,0,0,1 @ F,0,0,1,0,0,0,1 @ F,0,0,1,0,0,0,1 @ F,0,0,1,0,0,0,1 @ F,0,0,1,0,0,0,1 @ F,0,0,1,0,0,0,1 @ F,0,0,1,0,0,0,1 @ F,0,0,1,0,0,0,1 @ F,0,0,1,0,0,0,1 @ F,0,0,1,0,0,0,1 @ F,0,1,1,0,15.121534,0,1 @ F,0,1,1,0,15.121534,0,1 @ F,0,0,1,0,0,0,1 @ F,0,0,1,0,0,0,1 @ F,0,0,1,0,0,0,1 @ F,0,0,1,0,0,0,1 @ F,0,0,1,0,0,0,1 @ F,0,0,1,0,0,0,1 @ F,0,0,1,0,0,0,1 @ F,0,0,1,0,0,0,1 @ F,0,0,1,0,0,0,1 @ F,0,0,1,0,0,0,1 @ F,0,0,1,0,0,0,1 @ F,0,0,1,0,0,0,1 @ F,0,0,1,0,0,0,1 @ F,0,0,1,0,0,0,1 @ F,0,0,1,0,0,0,1" unit="px" method="auto" mode="F" radius="0" chamfer_steps="1" flexible="false" use_knot_distance="true" apply_no_radius="true" apply_with_radius="true" only_selected="true" hide_knots="false" /><inkscape:path-effect effect="fillet_chamfer" id="path-effect855" is_visible="true" lpeversion="1" satellites_param="F,0,0,1,0,0,0,1 @ F,0,0,1,0,0,0,1 @ F,0,0,1,0,0,0,1 @ F,0,0,1,0,0,0,1 @ F,0,0,1,0,0,0,1 @ F,0,0,1,0,0,0,1 @ F,0,0,1,0,0,0,1 @ F,0,0,1,0,0,0,1 @ F,0,0,1,0,0,0,1 @ F,0,0,1,0,0,0,1 @ F,0,0,1,0,0,0,1 @ F,0,0,1,0,0,0,1 @ F,0,0,1,0,0,0,1 @ F,0,0,1,0,0,0,1 @ F,0,0,1,0,0,0,1 @ F,0,0,1,0,0,0,1 @ F,0,1,1,0,48.592564,0,1 @ F,0,1,1,0,48.592564,0,1 @ F,0,0,1,0,0,0,1 @ F,0,0,1,0,0,0,1 @ F,0,0,1,0,0,0,1 @ F,0,0,1,0,0,0,1 @ F,0,0,1,0,0,0,1 @ F,0,0,1,0,0,0,1 @ F,0,0,1,0,0,0,1 @ F,0,0,1,0,0,0,1 @ F,0,0,1,0,0,0,1 @ F,0,0,1,0,0,0,1 @ F,0,0,1,0,0,0,1 @ F,0,0,1,0,0,0,1 @ F,0,0,1,0,0,0,1 @ F,0,0,1,0,0,0,1 @ F,0,0,1,0,0,0,1" unit="px" method="auto" mode="F" radius="0" chamfer_steps="1" flexible="false" use_knot_distance="true" apply_no_radius="true" apply_with_radius="true" only_selected="true" hide_knots="false" /><inkscape:path-effect effect="spiro" id="path-effect858" is_visible="true" lpeversion="1" /><inkscape:path-effect effect="spiro" id="path-effect854" is_visible="true" lpeversion="1" />
  <svg:style type="text/css" id="style2">
   
    .fil0 {fill:#EF7F1A;fill-rule:nonzero}
   
  </svg:style>
 <inkscape:path-effect effect="spiro" id="path-effect1214" is_visible="true" lpeversion="1" /><inkscape:path-effect effect="spiro" id="path-effect1195" is_visible="true" lpeversion="1" /><inkscape:path-effect effect="spiro" id="path-effect992" is_visible="true" lpeversion="1" /><inkscape:path-effect effect="spiro" id="path-effect287" is_visible="true" lpeversion="1" /><inkscape:path-effect effect="spiro" id="path-effect1032" is_visible="true" lpeversion="1" /><inkscape:path-effect effect="spiro" id="path-effect1218" is_visible="true" lpeversion="1" /><inkscape:path-effect effect="spiro" id="path-effect309" is_visible="true" lpeversion="1" /><inkscape:path-effect effect="spiro" id="path-effect1525" is_visible="true" lpeversion="1" /><inkscape:path-effect effect="spiro" id="path-effect1343" is_visible="true" lpeversion="1" /></svg:defs>
 
<svg:g id="path979-0-6-9"><svg:path style="color:#000000;clip-rule:nonzero;fill:#1a5fb4;fill-rule:nonzero;stroke-linecap:round;stroke-linejoin:round;-inkscape-stroke:none;shape-rendering:auto" d="m 188.68555,767.69922 c -23.06304,-0.50701 -46.63728,3.23823 -68.98438,13.16406 -17.9168,7.95804 -34.48152,19.73822 -47.666014,35.38867 -13.239454,15.7157 -22.644908,34.89568 -26.027344,56.02344 -3.175953,19.83801 -0.77582,39.78204 6.017579,57.99023 3.195781,8.56559 7.379648,16.58611 12.255859,24.08204 -8.397656,-5.43389 -19.474597,-8.8029 -30.984375,-6.20313 C 19.554209,951.24866 9.1563476,962.41201 4.8632812,973.25 l -27.1855472,68.6328 c -8.96478,22.6319 -1.048832,47.0774 21.35156287,59.0313 15.12798113,8.073 30.88662913,14.9477 47.10351513,20.539 47.113477,16.244 97.327388,21.3559 146.326168,16.6348 33.75351,-3.2522 68.43392,-11.2942 100.43555,-28.1133 32.20502,-16.926 61.07604,-42.7577 78.52149,-77.1308 12.4672,-24.5644 18.17823,-51.82712 17.40429,-78.88677 -0.7727,-27.01643 -7.95873,-53.2914 -20.15625,-76.87109 -28.18887,-54.49348 -81.36068,-91.2233 -139.39258,-104.29688 -13.09443,-2.94994 -26.74811,-4.78564 -40.58593,-5.08984 z m -1.0625,60.08398 c 9.37822,0.1927 18.97369,1.40176 28.46093,3.53907 14.68335,3.3079 28.90145,8.94402 42.06836,16.29882 -1.13311,2.03498 -2.50182,3.93783 -3.74414,5.91407 -8.86375,-4.67331 -17.85645,-8.59238 -26.67187,-12.00391 -10.51504,-4.06928 -22.3944,-8.105 -35.91211,-10.08008 -13.6351,-1.99223 -28.78251,-1.81748 -44.07422,3.24219 -3.0393,1.00563 -6.00545,2.30216 -8.94141,3.67773 1.7268,-0.92691 3.44385,-1.87246 5.24805,-2.67382 12.91081,-5.73455 27.93603,-8.23522 43.56641,-7.91407 z m -13.67774,62.58399 c 2.80027,-0.1588 5.90928,-0.0262 9.20313,0.45508 6.70509,0.97968 14.3886,3.35718 22.93359,6.66406 0.73394,0.28403 1.39853,0.61839 2.125,0.9082 -9.82299,5.54071 -19.78401,9.16978 -29.0332,10.10156 -7.13547,0.71885 -13.27296,-0.38746 -16.85156,-2.2207 -1.75793,-0.90054 -3.1077,-2.05161 -3.84766,-2.95508 -0.69785,-0.85206 -1.05926,-1.80006 -1.11719,-2.09765 -0.0608,-0.31247 0.2371,-2.68084 1.32422,-4.2168 1.28356,-1.81352 4.26352,-4.14108 7.91602,-5.34961 2.05564,-0.68016 4.54738,-1.13027 7.34765,-1.28906 z m 86.49414,45.04297 c 1.05439,1.59902 2.012,3.21606 2.875,4.84765 -5.86141,3.42818 -11.92355,6.48577 -18.18164,9.00391 -4.17803,1.68116 -8.4693,3.06523 -12.79101,4.33008 6.28108,-3.26254 12.27295,-6.84645 17.88476,-10.67383 3.49567,-2.38412 6.88743,-4.90541 10.21289,-7.50781 z M 51.111328,1019.4219 c 30.492076,21.4583 65.065562,36.9747 101.583982,45.0742 32.53472,7.2159 69.61028,9.254 104.92969,-5.0977 8.73361,-3.5488 17.18901,-8.0987 25.08789,-13.6484 -5.59347,4.0984 -11.5167,7.8465 -17.73242,11.1133 -23.07015,12.1249 -50.10108,18.7853 -78.27539,21.5 -40.95608,3.9462 -82.69125,-0.4199 -121.013674,-13.6328 -9.536739,-3.2881 -18.802658,-7.3101 -27.908203,-11.666 z m 239.945312,19.6621 c -2.0762,1.7923 -4.22119,3.5146 -6.42383,5.1894 2.20919,-1.6198 4.31662,-3.4035 6.42383,-5.1894 z" id="path26962" /></svg:g></svg:svg>
